shared/images/iconfont/83-kb-iconfont-reacji-heart-16.svg

<?xml version="1.0" encoding="UTF-8"?>
<svg width="16px" height="16px" viewBox="0 0 16 16" version="1.1" xmlns="http://www.w3.org/2000/svg" xmlns:xlink="http://www.w3.org/1999/xlink">
    <!-- Generator: sketchtool 54.1 (76490) - https://sketchapp.com -->
    <title>D4BFCF4D-2FC5-462B-922F-C6AAC28BB07D</title>
    <desc>Created with sketchtool.</desc>
    <g id="Symbols" stroke="none" stroke-width="1" fill="none" fill-rule="evenodd">
        <g id="83-kb-iconfont-reacji-heart-16">
            <g>
                <polygon id="icon-area" opacity="0" points="0 0 16 0 16 16 0 16"></polygon>
                <path d="M14.8272503,9.18566145 C14.5153967,8.48696678 13.8145669,8 13,8 C11.8954305,8 11,8.8954305 11,10 C9.8954305,10 9,10.8954305 9,12 C9,12.5900354 9.25550647,13.120394 9.66191171,13.4864683 C9.12593229,13.7845381 8.57007631,14.0741809 8,14.3592191 C4.02060196,12.3595215 0.721101066,10.1331916 0.0545352293,6.36042901 C-0.345404273,3.98078898 1.50764875,1.287863 3.86729181,1.02790232 C5.60702865,0.83459823 6.66686833,1.66113987 8,3.02759983 C9.29313772,1.69446816 10.3929714,0.841263889 12.1327082,1.02790232 C14.4923512,1.31452563 16.3454043,4.00745161 15.9454648,6.36042901 C15.7650796,7.41298587 15.3782048,8.34517689 14.8272503,9.18566145 Z M14,11 L15,11 C15.5522847,11 16,11.4477153 16,12 C16,12.5522847 15.5522847,13 15,13 L14,13 L14,14 C14,14.5522847 13.5522847,15 13,15 C12.4477153,15 12,14.5522847 12,14 L12,13 L11,13 C10.4477153,13 10,12.5522847 10,12 C10,11.4477153 10.4477153,11 11,11 L12,11 L12,10 C12,9.44771525 12.4477153,9 13,9 C13.5522847,9 14,9.44771525 14,10 L14,11 Z" id="heart" fill="#000000"></path>
            </g>
        </g>
    </g>
</svg>

<svg xmlns="http://www.w3.org/2000/svg" width="16" height="16" viewBox="0 0 16 16">
    <path fill="#000" fill-rule="nonzero" d="M14.827 9.186A2 2 0 0 0 11 10a2 2 0 0 0-1.338 3.486c-.536.299-1.092.588-1.662.873-3.98-2-7.279-4.226-7.945-7.999-.4-2.38 1.453-5.072 3.812-5.332 1.74-.193 2.8.633 4.133 2 1.293-1.334 2.393-2.187 4.133-2 2.36.287 4.212 2.98 3.812 5.332a7.36 7.36 0 0 1-1.118 2.826zM14 11h1a1 1 0 0 1 0 2h-1v1a1 1 0 0 1-2 0v-1h-1a1 1 0 0 1 0-2h1v-1a1 1 0 0 1 2 0v1z"/>
</svg>
